!!!OTL: The Rambling Boys of Pleasure, S. 84
!!!id: I0526
**kern
*clefG2
*k[f#c#]
*D:
{8a
8f#
=1
4.d
8d
8d
8f#
4a
=2
4.dd
8a
4.g
8a
=3
4.f#
8a
8g
8e
8d
8c#
=4
4.d
8d
4d
=5
16dddd
16dddd}
{8cc#
8dd
=6
4.ee
8cc#
4a
8cc#
8ee
=7
4.dd
8ee
8cc#
8a
8f#
8a
=8
4.b
8cc#
8dd
8b
8a
8f#
=9
4a
8b
8dd
16eeee
16dddd}
{8dd
=10
4.ee
8cc#
4a
8cc#
8ee
=11
4.dd
8ee
8cc#
8a
8f#
8a
=12
4.b
8cc#
8dd
8b
8a
8f#
=13
4a
8b
8dd
16dd
16d
16ffff#
16dddd}
{8f#
8e
=14
4.d
8d
8d
8f#
4a
=15
4.dd
8a
4.g
16a
16g
=16
4.f#
8a
8g
8e
8d
8c#
=17
4.d
8d
4d}
==
*-
!!!minrhy: 16
!!!meters: 4/4 ]  ZZ[4
!!!cut: The Rambling Boys of Pleasure, S. 84
!!!reg: Irland
!!!trd: O BOYLE, Sean: 25 Irish Folksongs, Dublin 1976
!!!rhy1: X_X_  X__.X_X_X_X__  X__.X_X__.X_  X__.X_X_X_X_X_  X__.X_X__   (x2)
!!!rhy2: X_X_  X__.X_X__X_X_  X__.X_X_X_X_X_  X__.X_X_X_X_X_  X__X_X_X__.
!!!key: I0526  16  D 4/4 ]  ZZ[4
!!!mod: HEPTATONIK IONISCH]  AMBITUS[10b
!!!kad: 1+1+11
!!!akz: 11+143411_+25+176+15+1_+25+176+15+1_11+143411_
!!!fot: 'a__b__bv_av_
!!!for: 'a__b__bv_c__
!!!fok: 'Sd_$a_$__Sd_
!! PHRAS[AUFTAKTIG]
!!!fkt: Liebeslied, nicht beantwortete Liebe
!! IRISCHE VKL.
!! PR[8] 2K[7] 2G[15] 3K[6] 3G[4] 4A[4] 4Ü[0] 5A[0] 6K[0] 6G[2]
!! 7K[0] 7G[0] 8A[0] MEHR[0] SI[38] ABS[85] SR[22] SP[15]
!! ST[16] 2k[8] 2g[32] 3k[12] 3g[2] 4d[0] 4ü[0] 5d[0] 6k[0] 6g[0]
!! 7k[0] 7g[0] 8d[0] mehr[0] si[54] dm[-16] sr[40] sp[14]
!! 1F[1] 2F[65] 3F[20] 4F[0] LF[0] 2P[1] 3P[13] 4P[0] TRI[0] DF[5] AB[88]
!! TF[0] U3K[0] U3[0] U4[0] U4Ü[0] U5[0] U6K[0] U6[0] U7K[0] U7[0]
!! N1[7] N2K[0] N2[14] N3K[0] N3[19] N4[8] N4Ü[0] N5[15] N6K[0] N6[7]
!!!n7k: 0] N7[14] O1[10] O2K[0] O2[6] O3K[0] O3[0] HÖ[0
